public/img/logo/logo-white.svg

<svg clip-rule="evenodd" fill-rule="evenodd" stroke-linejoin="round" stroke-miterlimit="2" viewBox="0 0 127 126" xmlns="http://www.w3.org/2000/svg"><g fill="#fff" fill-rule="nonzero"><path d="m0-9.045c.176-12.057-.819-27.199-2.802-42.295-3.029-23.074-8.508-45.542-16.169-67.503-20.713-59.38-55.863-109-102.354-150.84-23.842-21.456-50.81-38.245-79.911-51.635-27.604-12.7-56.443-21.481-86.337-26.794-14.815-2.634-29.754-4.332-44.798-4.905-22.594-.859-45.081.375-67.472 3.579-16.33 2.336-32.451 5.611-48.277 10.256-35.448 10.405-68.182 26.519-98.637 47.324-38.296 26.162-69.603 59.154-95.092 97.782-22.523 34.133-38.299 71.156-47.33 111.032-3.537 15.613-5.925 31.413-7.195 47.386-.913 11.492-1.498 22.996-1.252 34.514.188 8.79.758 17.576 1.353 26.351.866 12.782 2.875 25.416 5.423 37.963 4.823 23.744 12.356 46.634 21.652 68.982 11.366 27.323 25.743 52.875 44.037 76.197 17.974 22.915 38.778 42.954 61.495 61.082 57.177 45.627 122.206 70.651 195.342 74.147 28.524 1.364 56.905-.176 85.065-5.297 35.072-6.378 68.247-18.031 99.496-35.172 29.946-16.426 56.656-37.148 81.119-60.893 43.138-41.871 72.081-92.213 89.127-149.582 9.543-32.113 13.604-65.045 13.517-101.679m-749.847 6.53c.258-62.346 13.138-121.847 40.196-178.147 16.479-34.287 38.062-65.09 63.599-93.202 35.924-39.545 77.678-71.261 126.107-94.026 30.983-14.564 63.309-24.987 96.998-31.076 25.876-4.677 51.995-6.864 78.289-6.669 115.32.855 219.822 51.975 288.819 126.031 42.578 45.7 72.619 98.7 91.127 158.288 6.033 19.423 10.473 39.23 13.282 59.369 3.322 23.812 4.514 47.74 3.501 71.788-.579 13.757-1.594 27.467-3.463 41.098-4.275 31.175-12.072 61.446-23.71 90.705-16.746 42.1-39.327 80.717-68.777 115.231-31.399 36.797-68.604 66.426-110.83 89.89-34.642 19.251-71.33 32.971-110.131 40.998-13.313 2.754-26.738 4.819-40.271 6.223-16.724 1.734-33.476 2.799-50.29 2.484-85.271-1.6-162.386-27.453-231.134-77.997-25.481-18.734-48.835-39.798-69.22-64.064-24.034-28.608-43.256-60.2-58.612-94.204-11.948-26.458-21.282-53.781-27.274-82.216-3.004-14.251-5.225-28.612-6.522-43.125-1.111-12.437-1.743-24.888-1.684-37.379" transform="matrix(.157072851 0 0 .157072851 117.7837616 63.7158228)"/><path d="m0 86.476c.792.423 1.325.767 1.901 1.007 5.301 2.212 10.684 4.247 15.897 6.648 6.382 2.939 12.632 6.165 18.923 9.298 4.01 1.997 8.036 3.976 12.443 4.916 1.853.395 3.805.625 5.688.516 3.956-.227 6.434-2.726 6.853-6.682.168-1.584.209-3.198.121-4.788-.382-6.902.171-13.724 1.48-20.505.297-1.537.687-3.138-.096-4.894-.885.213-1.787.423-2.685.648-2.475.621-4.915 1.488-7.427 1.823-5.695.76-11.417 1.342-17.141 1.845-7.636.67-15.315.935-22.805 2.795-4.071 1.011-7.936 2.475-11.22 5.166-.699.571-1.211 1.37-1.932 2.207m-144.689-185.82c.288-.162.575-.323.862-.485 1.669 1.914 3.396 3.782 4.997 5.751 11.541 14.201 17.999 30.393 19.31 48.689.753 10.51-.501 20.717-3.368 30.823-1.612 5.68-3.224 11.421-4.066 17.245-2.241 15.51 2.299 28.753 14.238 39.216 3.749 3.286 7.879 6.011 12.262 8.364 6.079 3.263 12.478 5.747 19.044 7.836 16.891 5.375 34.295 7.721 51.92 8.508 13.268.592 26.54.482 39.797-.719 12.766-1.156 25.375-3.191 37.842-6.105 5.301-1.239 10.444-3.011 15.248-5.653 5.487-3.019 9.705-7.199 12.375-12.944 2.979-6.409 5.355-13.018 6.765-19.937.572-2.806.875-5.699.967-8.564.151-4.663-1.731-8.399-5.845-10.807-2.067-1.209-4.188-2.332-6.325-3.414-3.851-1.95-7.77-3.769-11.585-5.785-1.969-1.04-3.851-2.285-5.635-3.621-1.973-1.477-3.244-3.511-3.779-5.952-.35-1.598.583-2.986 2.237-2.931 1.567.053 3.142.417 4.678.789 9.083 2.201 18.253 3.243 27.595 2.249 2.063-.22 4.092-.517 5.936-1.575.079-.566.237-1.035.194-1.485-.526-5.506-2.824-10.201-7.022-13.75-2.792-2.36-5.877-4.411-8.986-6.351-6.512-4.063-13.14-7.939-19.696-11.931-15.572-9.482-31.126-18.992-46.699-28.474-1.474-.898-3.02-1.676-4.455-2.466-.428.461-.738.65-.828.913-1.718 5.056-5.56 6.639-10.504 6.56-4.225-.067-8.214-1.193-12.146-2.568-8.802-3.078-17.023-7.33-24.786-12.475-.555-.368-1.535-.543-1.141-1.744 1.098.212 2.195.356 3.254.642 4.969 1.342 10.054 1.912 15.167 2.196 4.498.25 8.961-.141 13.262-1.587 2.935-.987 5.499-2.574 7.378-5.114 1.805-2.44 2.53-4.995 1.613-8.085-2.23-7.514-5.893-14.138-11.449-19.694-3.528-3.528-7.449-6.578-11.776-9.024-4.867-2.751-9.791-5.439-14.858-7.794-15.658-7.278-31.395-14.388-47.108-21.547-.539-.246-1.155-.324-1.79-.495-.997 1.286-1.863 2.423-2.751 3.543-5.326 6.712-11.611 12.33-19.034 16.642-.634.369-1.305 1.008-2.142.101 1.261-2.011 2.549-4.03 3.802-6.071 2.769-4.513 5.206-9.195 6.631-14.319 4.604-16.555 1.138-31.051-11.466-42.953-3.112-2.939-6.752-5.379-10.365-7.715-4.573-2.956-9.579-5.123-14.674-7.058-20.901-7.94-42.619-11.281-64.879-11.076-20.108.185-39.815 3.29-58.998 9.417-14.852 4.744-28.968 11.07-41.848 19.954-17.417 12.014-31.141 27.436-41.841 45.606-10.612 18.02-18.389 37.238-24.053 57.338-5.863 20.807-9.638 42.055-13.451 63.299-2.117 11.799-4.22 23.609-6.769 35.318-4.38 20.125-12.719 38.497-25.364 54.843-3.034 3.922-5.995 7.901-8.97 11.869-.934 1.246-1.804 2.542-3.233 4.563 1.852-.59 2.9-.822 3.862-1.247 18.023-7.961 34.254-18.611 48.404-32.364 10.04-9.758 18.587-20.687 25.68-32.759.576-.98.841-2.33 2.583-2.729-.548 3.769-1.022 7.239-1.562 10.698-3.189 20.441-8.072 40.458-15.709 59.709-10.385 26.175-24.28 50.044-46.188 68.483-.489.412-1.325.932-.519 1.99 2.604-.861 4.91-2.283 7.288-3.539 41.769-22.068 72.664-54.417 92.134-97.541 3.092-6.848 6.057-13.754 9.046-20.648 4.135-9.536 8.307-19.055 13.326-28.173 7.466-13.566 16.715-25.741 28.291-36.078 9.162-8.182 19.478-14.493 30.98-18.837.953-.36 1.928-1.085 3.21.077-1.134 1.203-2.197 2.36-3.291 3.488-9.253 9.545-17.924 19.583-25.824 30.287-24.704 33.47-38.341 70.962-40.758 112.475-1.353 23.245-.055 46.34 4.35 69.259 4.793 24.945 12.624 48.874 23.28 71.903.657 1.418 1.445 2.775 2.171 4.161.422-.966.313-1.728.139-2.474-1.673-7.179-2.85-14.437-3.197-21.802-.513-10.894-.109-21.743 1.84-32.509 1.774-9.799 4.423-19.319 8.725-28.33 2.561-5.366 5.674-10.386 9.728-14.769.434-.469.819-1.471 2.035-.688-.185 1.165-.326 2.423-.589 3.656-1.767 8.295-3.104 16.647-3.872 25.105-1.517 16.73-.216 33.242 3.687 49.538 6.114 25.523 18.808 47.41 37.074 66.135 17.071 17.5 37.149 30.733 59.036 41.37.383.186.84.22 1.602.409-.626-1.874-2.024-2.723-3.067-3.805-9.032-9.362-17.078-19.474-23.647-30.732-12.907-22.124-18.043-45.951-15.685-71.42.08-.868.44-1.71.679-2.6.455.18.668.195.743.304.894 1.313 1.801 2.618 2.642 3.966 17.765 28.472 42.258 48.531 74.219 59.163 21.689 7.214 44.032 9.267 66.752 8.005.184-.011.346-.407.737-.898-9.796-5.159-19.206-10.844-27.901-17.64-8.606-6.727-16.416-14.263-23.28-22.769-6.966-8.631-12.793-17.974-17.479-28.021-4.665-10.002-8.315-20.346-10.67-31.304.779-.361 1.307-.756 1.885-.852 14.168-2.356 28.372-2.644 42.478.186 31.593 6.339 56.578 22.845 74.938 49.351.311.45.838.75 1.69 1.489.142-1.156.332-1.738.262-2.287-.525-4.124-.9-8.279-1.694-12.352-5.632-28.91-22.57-48.082-50.274-57.753-4.659-1.626-9.507-2.915-14.374-3.7-11.36-1.833-22.782-3.288-34.185-4.85-12.372-1.695-24.589-4.068-36.574-7.651-20.762-6.206-38.415-17.217-52.652-33.608-2.308-2.657-4.615-5.316-6.872-8.016-2.154-2.577-4.229-5.22-6.368-7.81-.469-.567-.795-1.437-2.134-1.17 0 .877-.037 1.795.006 2.709.36 7.693 1.545 15.267 3.357 22.743 2.882 11.89 7.57 23.078 13.4 33.79 3.362 6.179 6.983 12.216 10.469 18.327.367.643 1.073 1.272.28 2.302-.768-.555-1.56-1.076-2.296-1.667-6.509-5.223-12.477-11.007-17.761-17.47-19.501-23.854-29.286-51.477-31.363-81.965-1.148-16.85.377-33.559 3.886-50.078 2.564-12.066 6.101-23.846 10.704-35.292.437-1.086.448-2.588 2.154-3.135 0 1.139.058 2.181-.009 3.215-1.137 17.678.027 35.181 4.359 52.385 8.093 32.147 26.285 56.853 54.903 73.724 14.17 8.353 29.415 13.989 45.459 17.519 12.674 2.789 25.555 4.192 38.423 5.637 10.509 1.179 20.882 2.992 31.089 5.769 32.615 8.872 59.958 25.952 81.404 52.229.91 1.115 1.819 2.236 2.805 3.282.371.393.962.58 1.642.97.057-.832.18-1.316.107-1.768-1.123-6.941-1.971-13.942-3.472-20.801-3.769-17.226-10.647-33.121-21.05-47.449-10.996-15.146-25.113-26.269-42.388-33.441-10.529-4.372-21.44-7.441-32.618-9.551-13.209-2.492-26.313-5.371-39.064-9.687-14.607-4.945-28.55-11.261-41.27-20.086-8.199-5.688-15.572-12.27-21.794-20.101-11.234-14.138-16.864-30.322-17.554-48.287-.029-.745-.665-1.901.931-2.395.627 1.482 1.256 2.932 1.855 4.393 2.978 7.26 6.268 14.361 10.537 20.973 3.757 5.82 8.165 11.069 13.612 15.386 1.35 1.07 2.815 1.995 4.289 3.031.864-1.563.097-2.709-.208-3.866-1.783-6.761-1.983-13.556-.755-20.441 1.13-6.338 3.29-12.342 5.555-18.327 1.868-4.933 3.746-9.862 5.525-14.827 3.804-10.62 4.27-21.561 3.07-32.667-1.074-9.94-3.835-19.422-7.558-28.658-.521-1.293-.988-2.608-1.481-3.913m-24.216-186.594c74.188-.121 140.147 23.456 199.106 68.17 56.666 42.975 99.881 108.87 117.363 176.073 4.681 17.992 7.954 36.208 9.362 54.763 1.542 20.31 1.356 40.613-.432 60.878-6.101 69.13-32.09 129.837-77.505 182.285-22.99 26.549-48.989 49.57-78.979 67.973-31.954 19.608-66.376 32.856-103.106 40.252-29.171 5.874-58.611 8.079-88.294 6.366-27.266-1.572-53.903-6.752-79.892-15.174-39.19-12.7-75.122-31.498-107.224-57.432-33.17-26.797-59.546-59.238-80.045-96.539-15.731-28.626-27.363-58.805-34.157-90.794-3.496-16.455-5.618-33.081-6.426-49.898-.668-13.927-.54-27.841.381-41.731 3.997-60.323 23.005-115.391 58.167-164.717 21.238-29.793 46.063-56.101 75.969-77.38 31.791-22.619 66.126-40.085 103.766-50.758 17.575-4.983 35.458-8.338 53.624-10.303 12.743-1.379 25.509-1.994 38.322-2.034" transform="matrix(.157072851 0 0 .157072851 89.8295132 56.2840296)"/><path d="m0-130.354c-6.215 11.468-7.225 23.46-4.762 35.88 2.454 12.374 7.699 23.298 17.921 32.108-2.394.04-3.971-.579-5.555-1.011-6.661-1.818-13.441-3.019-20.333-3.061-16.688-.102-32.274 3.911-46.377 13.085-8.662 5.635-16.024 12.681-22.508 20.682-6.466 7.979-11.991 16.59-16.623 25.734-3.751 7.407-7.121 15.007-10.648 22.528-.669 1.428-1.284 2.882-2.151 4.252-.174-2.644.539-5.117 1.105-7.609 2.342-10.315 5.608-20.327 10.027-29.941 14.904-32.427 39.439-54.102 73.209-65.435 1.787-.6 3.565-1.225 5.398-1.856-.665-5.86-1.583-11.377-1.839-16.926-.249-5.41.111-10.854.33-16.278.225-5.606 1.191-11.128 2.511-16.566 1.277-5.262 2.759-10.48 5.65-15.429 2.954.295 5.804.521 8.639.873 9.238 1.147 18.248 3.236 26.861 6.823 18.639 7.762 31.289 21.138 37.627 40.374.282.857.412 1.763.862 3.744-1.779-1.751-2.797-2.677-3.729-3.682-4.355-4.694-8.885-9.198-13.902-13.193-11.333-9.025-24.177-14.172-38.67-15.088-.935-.059-1.877-.008-3.043-.008" transform="matrix(.157072851 0 0 .157072851 54.5028374 47.3892216)"/></g></svg>

<?xml version="1.0" encoding="UTF-8" standalone="no"?>
<!DOCTYPE svg PUBLIC "-//W3C//DTD SVG 1.1//EN" "http://www.w3.org/Graphics/SVG/1.1/DTD/svg11.dtd">
<svg width="100%" height="100%" viewBox="0 0 127 126" version="1.1" xmlns="http://www.w3.org/2000/svg" xmlns:xlink="http://www.w3.org/1999/xlink" xml:space="preserve" xmlns:serif="http://www.serif.com/" style="fill-rule:evenodd;clip-rule:evenodd;stroke-linejoin:round;stroke-miterlimit:2;">
    <g transform="matrix(1,0,0,1,-23.2125,-68.0005)">
        <g transform="matrix(1.0062,0,0,1.0062,580.436,-0.421886)">
            <g transform="matrix(0.156105,0,0,0.156105,-436.732,131.324)">
                <path d="M0,-9.045C0.176,-21.102 -0.819,-36.244 -2.802,-51.34C-5.831,-74.414 -11.31,-96.882 -18.971,-118.843C-39.684,-178.223 -74.834,-227.843 -121.325,-269.683C-145.167,-291.139 -172.135,-307.928 -201.236,-321.318C-228.84,-334.018 -257.679,-342.799 -287.573,-348.112C-302.388,-350.746 -317.327,-352.444 -332.371,-353.017C-354.965,-353.876 -377.452,-352.642 -399.843,-349.438C-416.173,-347.102 -432.294,-343.827 -448.12,-339.182C-483.568,-328.777 -516.302,-312.663 -546.757,-291.858C-585.053,-265.696 -616.36,-232.704 -641.849,-194.076C-664.372,-159.943 -680.148,-122.92 -689.179,-83.044C-692.716,-67.431 -695.104,-51.631 -696.374,-35.658C-697.287,-24.166 -697.872,-12.662 -697.626,-1.144C-697.438,7.646 -696.868,16.432 -696.273,25.207C-695.407,37.989 -693.398,50.623 -690.85,63.17C-686.027,86.914 -678.494,109.804 -669.198,132.152C-657.832,159.475 -643.455,185.027 -625.161,208.349C-607.187,231.264 -586.383,251.303 -563.666,269.431C-506.489,315.058 -441.46,340.082 -368.324,343.578C-339.8,344.942 -311.419,343.402 -283.259,338.281C-248.187,331.903 -215.012,320.25 -183.763,303.109C-153.817,286.683 -127.107,265.961 -102.644,242.216C-59.506,200.345 -30.563,150.003 -13.517,92.634C-3.974,60.521 0.087,27.589 0,-9.045M-749.847,-2.515C-749.589,-64.861 -736.709,-124.362 -709.651,-180.662C-693.172,-214.949 -671.589,-245.752 -646.052,-273.864C-610.128,-313.409 -568.374,-345.125 -519.945,-367.89C-488.962,-382.454 -456.636,-392.877 -422.947,-398.966C-397.071,-403.643 -370.952,-405.83 -344.658,-405.635C-229.338,-404.78 -124.836,-353.66 -55.839,-279.604C-13.261,-233.904 16.78,-180.904 35.288,-121.316C41.321,-101.893 45.761,-82.086 48.57,-61.947C51.892,-38.135 53.084,-14.207 52.071,9.841C51.492,23.598 50.477,37.308 48.608,50.939C44.333,82.114 36.536,112.385 24.898,141.644C8.152,183.744 -14.429,222.361 -43.879,256.875C-75.278,293.672 -112.483,323.301 -154.709,346.765C-189.351,366.016 -226.039,379.736 -264.84,387.763C-278.153,390.517 -291.578,392.582 -305.111,393.986C-321.835,395.72 -338.587,396.785 -355.401,396.47C-440.672,394.87 -517.787,369.017 -586.535,318.473C-612.016,299.739 -635.37,278.675 -655.755,254.409C-679.789,225.801 -699.011,194.209 -714.367,160.205C-726.315,133.747 -735.649,106.424 -741.641,77.989C-744.645,63.738 -746.866,49.377 -748.163,34.864C-749.274,22.427 -749.906,9.976 -749.847,-2.515" style="fill:white;fill-rule:nonzero;"/>
            </g>
            <g transform="matrix(0.156105,0,0,0.156105,-464.514,123.938)">
                <path d="M0,86.476C0.792,86.899 1.325,87.243 1.901,87.483C7.202,89.695 12.585,91.73 17.798,94.131C24.18,97.07 30.43,100.296 36.721,103.429C40.731,105.426 44.757,107.405 49.164,108.345C51.017,108.74 52.969,108.97 54.852,108.861C58.808,108.634 61.286,106.135 61.705,102.179C61.873,100.595 61.914,98.981 61.826,97.391C61.444,90.489 61.997,83.667 63.306,76.886C63.603,75.349 63.993,73.748 63.21,71.992C62.325,72.205 61.423,72.415 60.525,72.64C58.05,73.261 55.61,74.128 53.098,74.463C47.403,75.223 41.681,75.805 35.957,76.308C28.321,76.978 20.642,77.243 13.152,79.103C9.081,80.114 5.216,81.578 1.932,84.269C1.233,84.84 0.721,85.639 0,86.476M-144.689,-99.344C-144.401,-99.506 -144.114,-99.667 -143.827,-99.829C-142.158,-97.915 -140.431,-96.047 -138.83,-94.078C-127.289,-79.877 -120.831,-63.685 -119.52,-45.389C-118.767,-34.879 -120.021,-24.672 -122.888,-14.566C-124.5,-8.886 -126.112,-3.145 -126.954,2.679C-129.195,18.189 -124.655,31.432 -112.716,41.895C-108.967,45.181 -104.837,47.906 -100.454,50.259C-94.375,53.522 -87.976,56.006 -81.41,58.095C-64.519,63.47 -47.115,65.816 -29.49,66.603C-16.222,67.195 -2.95,67.085 10.307,65.884C23.073,64.728 35.682,62.693 48.149,59.779C53.45,58.54 58.593,56.768 63.397,54.126C68.884,51.107 73.102,46.927 75.772,41.182C78.751,34.773 81.127,28.164 82.537,21.245C83.109,18.439 83.412,15.546 83.504,12.681C83.655,8.018 81.773,4.282 77.659,1.874C75.592,0.665 73.471,-0.458 71.334,-1.54C67.483,-3.49 63.564,-5.309 59.749,-7.325C57.78,-8.365 55.898,-9.61 54.114,-10.946C52.141,-12.423 50.87,-14.457 50.335,-16.898C49.985,-18.496 50.918,-19.884 52.572,-19.829C54.139,-19.776 55.714,-19.412 57.25,-19.04C66.333,-16.839 75.503,-15.797 84.845,-16.791C86.908,-17.011 88.937,-17.308 90.781,-18.366C90.86,-18.932 91.018,-19.401 90.975,-19.851C90.449,-25.357 88.151,-30.052 83.953,-33.601C81.161,-35.961 78.076,-38.012 74.967,-39.952C68.455,-44.015 61.827,-47.891 55.271,-51.883C39.699,-61.365 24.145,-70.875 8.572,-80.357C7.098,-81.255 5.552,-82.033 4.117,-82.823C3.689,-82.362 3.379,-82.173 3.289,-81.91C1.571,-76.854 -2.271,-75.271 -7.215,-75.35C-11.44,-75.417 -15.429,-76.543 -19.361,-77.918C-28.163,-80.996 -36.384,-85.248 -44.147,-90.393C-44.702,-90.761 -45.682,-90.936 -45.288,-92.137C-44.19,-91.925 -43.093,-91.781 -42.034,-91.495C-37.065,-90.153 -31.98,-89.583 -26.867,-89.299C-22.369,-89.049 -17.906,-89.44 -13.605,-90.886C-10.67,-91.873 -8.106,-93.46 -6.227,-96C-4.422,-98.44 -3.697,-100.995 -4.614,-104.085C-6.844,-111.599 -10.507,-118.223 -16.063,-123.779C-19.591,-127.307 -23.512,-130.357 -27.839,-132.803C-32.706,-135.554 -37.63,-138.242 -42.697,-140.597C-58.355,-147.875 -74.092,-154.985 -89.805,-162.144C-90.344,-162.39 -90.96,-162.468 -91.595,-162.639C-92.592,-161.353 -93.458,-160.216 -94.346,-159.096C-99.672,-152.384 -105.957,-146.766 -113.38,-142.454C-114.014,-142.085 -114.685,-141.446 -115.522,-142.353C-114.261,-144.364 -112.973,-146.383 -111.72,-148.424C-108.951,-152.937 -106.514,-157.619 -105.089,-162.743C-100.485,-179.298 -103.951,-193.794 -116.555,-205.696C-119.667,-208.635 -123.307,-211.075 -126.92,-213.411C-131.493,-216.367 -136.499,-218.534 -141.594,-220.469C-162.495,-228.409 -184.213,-231.75 -206.473,-231.545C-226.581,-231.36 -246.288,-228.255 -265.471,-222.128C-280.323,-217.384 -294.439,-211.058 -307.319,-202.174C-324.736,-190.16 -338.46,-174.738 -349.16,-156.568C-359.772,-138.548 -367.549,-119.33 -373.213,-99.23C-379.076,-78.423 -382.851,-57.175 -386.664,-35.931C-388.781,-24.132 -390.884,-12.322 -393.433,-0.613C-397.813,19.512 -406.152,37.884 -418.797,54.23C-421.831,58.152 -424.792,62.131 -427.767,66.099C-428.701,67.345 -429.571,68.641 -431,70.662C-429.148,70.072 -428.1,69.84 -427.138,69.415C-409.115,61.454 -392.884,50.804 -378.734,37.051C-368.694,27.293 -360.147,16.364 -353.054,4.292C-352.478,3.312 -352.213,1.962 -350.471,1.563C-351.019,5.332 -351.493,8.802 -352.033,12.261C-355.222,32.702 -360.105,52.719 -367.742,71.97C-378.127,98.145 -392.022,122.014 -413.93,140.453C-414.419,140.865 -415.255,141.385 -414.449,142.443C-411.845,141.582 -409.539,140.16 -407.161,138.904C-365.392,116.836 -334.497,84.487 -315.027,41.363C-311.935,34.515 -308.97,27.609 -305.981,20.715C-301.846,11.179 -297.674,1.66 -292.655,-7.458C-285.189,-21.024 -275.94,-33.199 -264.364,-43.536C-255.202,-51.718 -244.886,-58.029 -233.384,-62.373C-232.431,-62.733 -231.456,-63.458 -230.174,-62.296C-231.308,-61.093 -232.371,-59.936 -233.465,-58.808C-242.718,-49.263 -251.389,-39.225 -259.289,-28.521C-283.993,4.949 -297.63,42.441 -300.047,83.954C-301.4,107.199 -300.102,130.294 -295.697,153.213C-290.904,178.158 -283.073,202.087 -272.417,225.116C-271.76,226.534 -270.972,227.891 -270.246,229.277C-269.824,228.311 -269.933,227.549 -270.107,226.803C-271.78,219.624 -272.957,212.366 -273.304,205.001C-273.817,194.107 -273.413,183.258 -271.464,172.492C-269.69,162.693 -267.041,153.173 -262.739,144.162C-260.178,138.796 -257.065,133.776 -253.011,129.393C-252.577,128.924 -252.192,127.922 -250.976,128.705C-251.161,129.87 -251.302,131.128 -251.565,132.361C-253.332,140.656 -254.669,149.008 -255.437,157.466C-256.954,174.196 -255.653,190.708 -251.75,207.004C-245.636,232.527 -232.942,254.414 -214.676,273.139C-197.605,290.639 -177.527,303.872 -155.64,314.509C-155.257,314.695 -154.8,314.729 -154.038,314.918C-154.664,313.044 -156.062,312.195 -157.105,311.113C-166.137,301.751 -174.183,291.639 -180.752,280.381C-193.659,258.257 -198.795,234.43 -196.437,208.961C-196.357,208.093 -195.997,207.251 -195.758,206.361C-195.303,206.541 -195.09,206.556 -195.015,206.665C-194.121,207.978 -193.214,209.283 -192.373,210.631C-174.608,239.103 -150.115,259.162 -118.154,269.794C-96.465,277.008 -74.122,279.061 -51.402,277.799C-51.218,277.788 -51.056,277.392 -50.665,276.901C-60.461,271.742 -69.871,266.057 -78.566,259.261C-87.172,252.534 -94.982,244.998 -101.846,236.492C-108.812,227.861 -114.639,218.518 -119.325,208.471C-123.99,198.469 -127.64,188.125 -129.995,177.167C-129.216,176.806 -128.688,176.411 -128.11,176.315C-113.942,173.959 -99.738,173.671 -85.632,176.501C-54.039,182.84 -29.054,199.346 -10.694,225.852C-10.383,226.302 -9.856,226.602 -9.004,227.341C-8.862,226.185 -8.672,225.603 -8.742,225.054C-9.267,220.93 -9.642,216.775 -10.436,212.702C-16.068,183.792 -33.006,164.62 -60.71,154.949C-65.369,153.323 -70.217,152.034 -75.084,151.249C-86.444,149.416 -97.866,147.961 -109.269,146.399C-121.641,144.704 -133.858,142.331 -145.843,138.748C-166.605,132.542 -184.258,121.531 -198.495,105.14C-200.803,102.483 -203.11,99.824 -205.367,97.124C-207.521,94.547 -209.596,91.904 -211.735,89.314C-212.204,88.747 -212.53,87.877 -213.869,88.144C-213.869,89.021 -213.906,89.939 -213.863,90.853C-213.503,98.546 -212.318,106.12 -210.506,113.596C-207.624,125.486 -202.936,136.674 -197.106,147.386C-193.744,153.565 -190.123,159.602 -186.637,165.713C-186.27,166.356 -185.564,166.985 -186.357,168.015C-187.125,167.46 -187.917,166.939 -188.653,166.348C-195.162,161.125 -201.13,155.341 -206.414,148.878C-225.915,125.024 -235.7,97.401 -237.777,66.913C-238.925,50.063 -237.4,33.354 -233.891,16.835C-231.327,4.769 -227.79,-7.011 -223.187,-18.457C-222.75,-19.543 -222.739,-21.045 -221.033,-21.592C-221.033,-20.453 -220.975,-19.411 -221.042,-18.377C-222.179,-0.699 -221.015,16.804 -216.683,34.008C-208.59,66.155 -190.398,90.861 -161.78,107.732C-147.61,116.085 -132.365,121.721 -116.321,125.251C-103.647,128.04 -90.766,129.443 -77.898,130.888C-67.389,132.067 -57.016,133.88 -46.809,136.657C-14.194,145.529 13.149,162.609 34.595,188.886C35.505,190.001 36.414,191.122 37.4,192.168C37.771,192.561 38.362,192.748 39.042,193.138C39.099,192.306 39.222,191.822 39.149,191.37C38.026,184.429 37.178,177.428 35.677,170.569C31.908,153.343 25.03,137.448 14.627,123.12C3.631,107.974 -10.486,96.851 -27.761,89.679C-38.29,85.307 -49.201,82.238 -60.379,80.128C-73.588,77.636 -86.692,74.757 -99.443,70.441C-114.05,65.496 -127.993,59.18 -140.713,50.355C-148.912,44.667 -156.285,38.085 -162.507,30.254C-173.741,16.116 -179.371,-0.068 -180.061,-18.033C-180.09,-18.778 -180.726,-19.934 -179.13,-20.428C-178.503,-18.946 -177.874,-17.496 -177.275,-16.035C-174.297,-8.775 -171.007,-1.674 -166.738,4.938C-162.981,10.758 -158.573,16.007 -153.126,20.324C-151.776,21.394 -150.311,22.319 -148.837,23.355C-147.973,21.792 -148.74,20.646 -149.045,19.489C-150.828,12.728 -151.028,5.933 -149.8,-0.952C-148.67,-7.29 -146.51,-13.294 -144.245,-19.279C-142.377,-24.212 -140.499,-29.141 -138.72,-34.106C-134.916,-44.726 -134.45,-55.667 -135.65,-66.773C-136.724,-76.713 -139.485,-86.195 -143.208,-95.431C-143.729,-96.724 -144.196,-98.039 -144.689,-99.344M-168.905,-285.938C-94.717,-286.059 -28.758,-262.482 30.201,-217.768C86.867,-174.793 130.082,-108.898 147.564,-41.695C152.245,-23.703 155.518,-5.487 156.926,13.068C158.468,33.378 158.282,53.681 156.494,73.946C150.393,143.076 124.404,203.783 78.989,256.231C55.999,282.78 30,305.801 0.01,324.204C-31.944,343.812 -66.366,357.06 -103.096,364.456C-132.267,370.33 -161.707,372.535 -191.39,370.822C-218.656,369.25 -245.293,364.07 -271.282,355.648C-310.472,342.948 -346.404,324.15 -378.506,298.216C-411.676,271.419 -438.052,238.978 -458.551,201.677C-474.282,173.051 -485.914,142.872 -492.708,110.883C-496.204,94.428 -498.326,77.802 -499.134,60.985C-499.802,47.058 -499.674,33.144 -498.753,19.254C-494.756,-41.069 -475.748,-96.137 -440.586,-145.463C-419.348,-175.256 -394.523,-201.564 -364.617,-222.843C-332.826,-245.462 -298.491,-262.928 -260.851,-273.601C-243.276,-278.584 -225.393,-281.939 -207.227,-283.904C-194.484,-285.283 -181.718,-285.898 -168.905,-285.938" style="fill:white;fill-rule:nonzero;"/>
            </g>
            <g transform="matrix(0.156105,0,0,0.156105,-499.623,115.098)">
                <path d="M0,-130.354C-6.215,-118.886 -7.225,-106.894 -4.762,-94.474C-2.308,-82.1 2.937,-71.176 13.159,-62.366C10.765,-62.326 9.188,-62.945 7.604,-63.377C0.943,-65.195 -5.837,-66.396 -12.729,-66.438C-29.417,-66.54 -45.003,-62.527 -59.106,-53.353C-67.768,-47.718 -75.13,-40.672 -81.614,-32.671C-88.08,-24.692 -93.605,-16.081 -98.237,-6.937C-101.988,0.47 -105.358,8.07 -108.885,15.591C-109.554,17.019 -110.169,18.473 -111.036,19.843C-111.21,17.199 -110.497,14.726 -109.931,12.234C-107.589,1.919 -104.323,-8.093 -99.904,-17.707C-85,-50.134 -60.465,-71.809 -26.695,-83.142C-24.908,-83.742 -23.13,-84.367 -21.297,-84.998C-21.962,-90.858 -22.88,-96.375 -23.136,-101.924C-23.385,-107.334 -23.025,-112.778 -22.806,-118.202C-22.581,-123.808 -21.615,-129.33 -20.295,-134.768C-19.018,-140.03 -17.536,-145.248 -14.645,-150.197C-11.691,-149.902 -8.841,-149.676 -6.006,-149.324C3.232,-148.177 12.242,-146.088 20.855,-142.501C39.494,-134.739 52.144,-121.363 58.482,-102.127C58.764,-101.27 58.894,-100.364 59.344,-98.383C57.565,-100.134 56.547,-101.06 55.615,-102.065C51.26,-106.759 46.73,-111.263 41.713,-115.258C30.38,-124.283 17.536,-129.43 3.043,-130.346C2.108,-130.405 1.166,-130.354 0,-130.354" style="fill:white;fill-rule:nonzero;"/>
            </g>
        </g>
    </g>
</svg>
